assets/img/events/winding-tree-hackathon-prague-2018/partners/airfrance.svg

<svg height="215.43306" width="1311.0236" xmlns="http://www.w3.org/2000/svg"><g transform="matrix(1.2077694 0 0 1.2077694 -185.414795 -493.364956)"><g transform="matrix(2.3692229 0 0 2.3692229 165.3853 420.75627)"><path d="m321.356 43.14-226.266 1.994-.322.484 226.588 1.867z" fill="#0095d8"/><path d="m392.807 45.622.305-.485-71.756-1.997v4.345z" fill="#002454"/><g fill="#0095d8"><path d="m432.468 7.599-9.919 10.726-9.857-10.748h-8.338v25.436h6.532v-16.381l10.962 11.418 11.006-11.582v16.545h7.918v-25.414z"/><path d="m379.537 7.599h-7.923v25.408h26.559v-5.626h-18.636z"/><path d="m365.265 7.599h-10.489l-13.511 9.983v-9.983h-7.938l.001 25.414h7.937v-10.596l12.566 10.596h12.275l-16.625-13.892z"/></g><g fill="#002454"><path d="m309.472 12.122v-4.523h-24.595v25.408h24.556v-4.537h-17.828v-6.167h17.576v-4.522h-17.576v-5.659z"/><path d="m256.136 20.278c0-5.875 6.602-7.935 11.716-7.935 3.728 0 8.526 1.172 11.242 2.689l-.001-5.737c-2.929-1.065-7.749-2.063-11.648-2.063-9.922 0-19.227 4.743-19.227 12.916 0 7.868 9.068 13.239 17.951 13.239 4.967 0 9.661-.963 13.207-2.613v-5.536c-3.338 1.734-7.511 2.905-11.998 2.905-5.762.001-11.242-3.06-11.242-7.865z"/><path d="m238.039 23.439-18.993-15.844-5.117.004v25.422h5.72v-16.083l18.986 16.083h5.124v-25.422h-5.72z"/><path d="m113.015 33.021h6.729v-8.625h17.72v-4.523h-17.72v-7.74h18.158v-4.534h-24.887z"/><path d="m46.897999 7.599h6.728v25.422001h-6.728z"/><path d="m22.217 7.599c-5.134 8.364-10.034 16.868-14.843 25.422 0 .003 6.366 0 6.366 0l3.263-5.775h15.174l3.435 5.775h7.916c-4.976-8.623-10.229-17.077-15.656-25.422zm-2.766 15.122 4.819-8.457 5.04 8.457z"/><path d="m189.701 7.599c-5.134 8.364-10.034 16.868-14.843 25.422 0 .003 6.366 0 6.366 0l3.262-5.775h15.174l3.435 5.775h7.916c-4.977-8.623-10.229-17.077-15.656-25.422zm-2.767 15.122 4.82-8.457 5.039 8.457z"/><path d="m171.878 15.39c0-5.02-4.563-7.794-10.073-7.794h-18.57v25.425h6.734v-8.8h6.3l8.069 8.796 8.928.004-9.229-9.914c4.331-1.078 7.841-4.065 7.841-7.717zm-14.191 4.294h-7.717v-7.551h9.205c2.636 0 5.057 1.234 5.057 3.604-.001 2.387-2.419 3.947-6.545 3.947z"/><path d="m91.076 15.39c0-5.02-4.562-7.794-10.073-7.794h-18.57v25.425h6.734v-8.8h6.3l8.069 8.796 8.928.004-9.229-9.914c4.332-1.078 7.841-4.065 7.841-7.717zm-14.191 4.294h-7.717v-7.551h9.205c2.636 0 5.057 1.234 5.057 3.604-.001 2.387-2.418 3.947-6.545 3.947z"/></g></g><path d="m926.85828 557.36803c.26298-1.14907 4.11771-18.02978 4.11771-29.31202 0-11.29409-3.8571-28.23403-4.11534-29.35231v-.03317s0 .01185-.00237.01659c-.00711-.02606-.01185-.04502-.01185-.04502v.09003c-.25587 1.11828-4.11771 18.02268-4.11771 29.31914 0 11.28224 3.84762 28.19375 4.11297 29.34756v.03554s.00237-.01422.00237-.01658c.00711.0308.01422.04975.01422.04975z" fill="#e2001a"/></g></svg>

<?xml version="1.0" encoding="UTF-8" standalone="no"?>
<!-- Created with Inkscape (http://www.inkscape.org/) -->
<svg
   xmlns:svg="http://www.w3.org/2000/svg"
   xmlns="http://www.w3.org/2000/svg"
   version="1.0"
   width="1311.0236"
   height="215.43306"
   id="svg2">
  <defs
     id="defs4" />
  <g
     transform="translate(-182.85595,-413.04605)"
     id="layer1">
    <g
       transform="matrix(1.2077694,0,0,1.2077694,-2.5588446,-80.318906)"
       id="g2569">
      <polygon
         points="321.356,43.14 95.09,45.134 94.768,45.618 321.356,47.485 321.356,43.14 "
         transform="matrix(2.3692229,0,0,2.3692229,165.3853,420.75627)"
         id="polygon2426"
         style="fill:#0095d8" />
      <polygon
         points="392.807,45.622 393.112,45.137 321.356,43.14 321.356,47.485 392.807,45.622 "
         transform="matrix(2.3692229,0,0,2.3692229,165.3853,420.75627)"
         id="polygon2428"
         style="fill:#002454" />
      <g
         transform="matrix(2.3692229,0,0,2.3692229,165.3853,420.75627)"
         id="g2432">
	<g
   id="g2434">
		<polygon
   points="432.468,7.599 422.549,18.325 412.692,7.577 404.354,7.577 404.354,33.013 410.886,33.013 410.886,16.632 421.848,28.05 432.854,16.468 432.854,33.013 440.772,33.013 440.772,7.599 432.468,7.599 "
   id="polygon2436"
   style="fill:#0095d8" />

		<polygon
   points="379.537,7.599 371.614,7.599 371.614,33.007 398.173,33.007 398.173,27.381 379.537,27.381 379.537,7.599 "
   id="polygon2438"
   style="fill:#0095d8" />

		<polygon
   points="365.265,7.599 354.776,7.599 341.265,17.582 341.265,7.599 333.327,7.599 333.328,33.013 341.265,33.013 341.265,22.417 353.831,33.013 366.106,33.013 349.481,19.121 365.265,7.599 "
   id="polygon2440"
   style="fill:#0095d8" />

	</g>

	<g
   id="g2442">
		<polygon
   points="309.472,12.122 309.472,7.599 284.877,7.599 284.877,33.007 309.433,33.007 309.433,28.47 291.605,28.47 291.605,22.303 309.181,22.303 309.181,17.781 291.605,17.781 291.605,12.122 309.472,12.122 "
   id="polygon2444"
   style="fill:#002454" />

		<path
   d="M 256.136,20.278 C 256.136,14.403 262.738,12.343 267.852,12.343 C 271.58,12.343 276.378,13.515 279.094,15.032 L 279.093,9.295 C 276.164,8.23 271.344,7.232 267.445,7.232 C 257.523,7.232 248.218,11.975 248.218,20.148 C 248.218,28.016 257.286,33.387 266.169,33.387 C 271.136,33.387 275.83,32.424 279.376,30.774 L 279.376,25.238 C 276.038,26.972 271.865,28.143 267.378,28.143 C 261.616,28.144 256.136,25.083 256.136,20.278 z"
   id="path2446"
   style="fill:#002454" />

		<polygon
   points="238.039,23.439 219.046,7.595 213.929,7.599 213.929,33.021 219.649,33.021 219.649,16.938 238.635,33.021 243.759,33.021 243.759,7.599 238.039,7.599 238.039,23.439 "
   id="polygon2448"
   style="fill:#002454" />

		<polygon
   points="113.015,33.021 119.744,33.021 119.744,24.396 137.464,24.396 137.464,19.873 119.744,19.873 119.744,12.133 137.902,12.133 137.902,7.599 113.015,7.599 113.015,33.021 "
   id="polygon2450"
   style="fill:#002454" />

		<rect
   width="6.7280002"
   height="25.422001"
   x="46.897999"
   y="7.599"
   id="rect2452"
   style="fill:#002454" />

		<path
   d="M 22.217,7.599 C 17.083,15.963 12.183,24.467 7.374,33.021 C 7.374,33.024 13.74,33.021 13.74,33.021 L 17.003,27.246 L 32.177,27.246 L 35.612,33.021 L 43.528,33.021 C 38.552,24.398 33.299,15.944 27.872,7.599 L 22.217,7.599 z M 19.451,22.721 L 24.27,14.264 L 29.31,22.721 L 19.451,22.721 z"
   id="path2454"
   style="fill:#002454" />

		<path
   d="M 189.701,7.599 C 184.567,15.963 179.667,24.467 174.858,33.021 C 174.858,33.024 181.224,33.021 181.224,33.021 L 184.486,27.246 L 199.66,27.246 L 203.095,33.021 L 211.011,33.021 C 206.034,24.398 200.782,15.944 195.355,7.599 L 189.701,7.599 z M 186.934,22.721 L 191.754,14.264 L 196.793,22.721 L 186.934,22.721 z"
   id="path2456"
   style="fill:#002454" />

		<path
   d="M 171.878,15.39 C 171.878,10.37 167.315,7.596 161.805,7.596 L 143.235,7.596 L 143.235,33.021 L 149.969,33.021 L 149.969,24.221 L 156.269,24.221 L 164.338,33.017 L 173.266,33.021 L 164.037,23.107 C 168.368,22.029 171.878,19.042 171.878,15.39 z M 157.687,19.684 L 149.97,19.684 L 149.97,12.133 L 159.175,12.133 C 161.811,12.133 164.232,13.367 164.232,15.737 C 164.231,18.124 161.813,19.684 157.687,19.684 z"
   id="path2458"
   style="fill:#002454" />

		<path
   d="M 91.076,15.39 C 91.076,10.37 86.514,7.596 81.003,7.596 L 62.433,7.596 L 62.433,33.021 L 69.167,33.021 L 69.167,24.221 L 75.467,24.221 L 83.536,33.017 L 92.464,33.021 L 83.235,23.107 C 87.567,22.029 91.076,19.042 91.076,15.39 z M 76.885,19.684 L 69.168,19.684 L 69.168,12.133 L 78.373,12.133 C 81.009,12.133 83.43,13.367 83.43,15.737 C 83.429,18.124 81.012,19.684 76.885,19.684 z"
   id="path2460"
   style="fill:#002454" />

	</g>

</g>
      <path
         d="M 926.85828,557.36803 C 927.12126,556.21896 930.97599,539.33825 930.97599,528.05601 C 930.97599,516.76192 927.11889,499.82198 926.86065,498.7037 L 926.86065,498.67053 C 926.86065,498.67053 926.86065,498.68238 926.85828,498.68712 C 926.85117,498.66106 926.84643,498.6421 926.84643,498.6421 L 926.84643,498.73213 C 926.59056,499.85041 922.72872,516.75481 922.72872,528.05127 C 922.72872,539.33351 926.57634,556.24502 926.84169,557.39883 L 926.84169,557.43437 C 926.84169,557.43437 926.84406,557.42015 926.84406,557.41779 C 926.85117,557.44859 926.85828,557.46754 926.85828,557.46754 L 926.85828,557.36803 L 926.85828,557.36803 z"
         id="path2430"
         style="fill:#e2001a" />
    </g>
  </g>
</svg>
